!!!COM: Hugo Wolf
!!!CNT: Deutscher
!!!TXO: Deutsche 
!!!OTL: Als Ich Auf Dem Euphrat Schiffte
!!!ODT: 1889/01/24
!!!ONM: No. 41
!!!LYR: Johann Wolfgang von Goethe
!!!ENC: Brian Bice
!!!YOR: 45 Songs on Poems of Goethe and Eichendorff, Dover Publications, 1995
!!NB: Vocal melody and text only encoded.
**kern	**silbe
*clefG2	*
*k[f#c#g#]	*
*M12/8	*
=1	=1
2.r	.
{4a	{Als
8g#	ich
4f#	auf
8fn	dem
=2	=2
(4e	Eu-
8a)	|
(4b	phrat
8cc#)	|
4.cc#	schiff-
4.e}	-te,}
=3	=3
4r	.
8r	.
{[4.cc#	{streif-
4cc#]	|
8cc#	-te
4cc#	sich
8cc#	der
=4	=4
4.cc#	gold-
4dd#	|
8ee	-ne
4.dd#	Ring
[4.ee-	fin-
=5	=5
*k[b-e-a-d-]	*
4ee-]	|
8a-	-ger
4.a-}	ab,}
4r	.
{8e-	{in
[4.e-	Was-
=6	=6
4e-]	|
8cc	-ser-
[4.cc	-klu2f-
4cc]	|
8e-}	-te,}
4r	.
8r	.
=7	=7
4r	.
8r	.
{[4.cc	{den
4cc]	|
8cc	ich
4cc	ju2ngst
8cc-	von
=8	=8
4.b-	dir
4.a-	emp-
[4.g	-fing.
4g]}	|}
8r	.
=9	=9
2.r	.
{[4.b-	{Al-
4b-]	|
8b-	-so
=10	=10
4.b-	tra2umt
4.f-}	ich.}
4r	.
8r	.
{[4.b-	{Mor-
=11	=11
4b-]	|
8b-	-gen-
4b-	-ro2-
8b-	-te
4b-	blitzt'
8b-	ins
(4.b-	Au-
=12	=12
*k[f#c#g#]	*
4a)	|
8a	-ge
4g#	durch
8g#	den
[4.b	Baum,
4b]}	|}
8r	.
=13	=13
4r	.
8r	.
{[4.cc#	{sag
4cc#]	|
8f#	Po-
4f#	-e-
8fn	-te,
=14	=14
4r	.
8r	.
[4.cc#	sag
4cc#]	|
8f#	Pro-
4f#	-phe-
8fn}	-te!}
=15	=15
4r	.
8r	.
{4e	{Was
8e	be-
(4.e	-deu-
4.a)	-tet
=16	=16
4.a	die-
4.b	-ser
[2.cc#	Traum?
=17	=17
2.cc#]}	|}
2.r	.
*-	*-
